svgs/activitylauncher.svg

<svg xmlns="http://www.w3.org/2000/svg" viewBox="0 0 192 192"><path d="M95.234 146.636c-3.657 0-7.167.748-9.753 2.078-2.586 1.329-4.04 3.135-4.04 5.016 0 1.88 1.454 3.686 4.04 5.016 2.586 1.329 6.096 2.077 9.753 2.077 3.656 0 7.167-.748 9.753-2.077 2.585-1.33 4.039-3.136 4.039-5.016 0-1.881-1.454-3.687-4.039-5.016-2.586-1.33-6.097-2.078-9.753-2.078Z" fill="none" stroke="#000" stroke-width="8" stroke-linecap="round" stroke-linejoin="round"/><path d="M86.422 132.693h18.237c4.674 7.175 10.497 8.154 21.915 6.564l8.965 8.153c-11.417 3.833-12.107 8.847 0 13.78l-8.352 7.379c-15.709-3.139-21.379-.244-22.528 6.931H86.422c-1.226-8.154-9.808-9.377-22.988-6.931l-8.812-7.664c11.724-4.648 10.958-9.214 0-13.698l9.502-8.48c12.413 2.12 20.842.571 22.298-6.034Zm9.042-9.703 15.325-13.943c1.088-1.646 1.087-3.441-.002-5.087-1.088-1.646-3.201-3.046-5.987-3.966-2.786-.921-6.081-1.308-9.336-1.098-3.197-.189-6.419.227-9.098 1.173-2.68.947-4.65 2.366-5.564 4.006-.914 1.641-.715 3.402.563 4.972ZM59.986 45a537.494 537.494 0 0 1 71.185 0c2.545 15.757-.021 31.63-7.586 46.924a583.416 583.416 0 0 0-55.17 0c-8.837-15.139-11.706-31.087-8.429-46.843Z" fill="none" stroke="#000" stroke-width="8" stroke-linecap="round" stroke-linejoin="round"/><path d="M131.171 45c-6.519-9.686-16.601-18.584-29.654-26.174-5.824-2.894-6.666-3.302-12.183 0C76.294 26.392 66.305 35.3 59.986 45m63.599 46.924a198.945 198.945 0 0 1 21.915 3.14c-.46-5.626-2.912-12.231-17.394-14.351m-64.978 0C48.646 82.711 46.96 89.356 46.5 94.982a199.873 199.873 0 0 1 21.915-3.058" fill="none" stroke="#000" stroke-width="8" stroke-linecap="round" stroke-linejoin="round"/></svg>

<svg
    xmlns="http://www.w3.org/2000/svg"
    viewBox="0 0 192 192"
    id="vector">
    <path
        id="path"
        d="M 95.234 146.636 C 91.577 146.636 88.067 147.384 85.481 148.714 C 82.895 150.043 81.441 151.849 81.441 153.73 C 81.441 155.61 82.895 157.416 85.481 158.746 C 88.067 160.075 91.577 160.823 95.234 160.823 C 98.89 160.823 102.401 160.075 104.987 158.746 C 107.572 157.416 109.026 155.61 109.026 153.73 C 109.026 151.849 107.572 150.043 104.987 148.714 C 102.401 147.384 98.89 146.636 95.234 146.636 Z"
        fill="none"
        stroke="#000000"
        stroke-width="8"
        stroke-linecap="round"
        stroke-linejoin="round"/>
    <path
        id="path_1"
        d="M 86.422 132.693 L 104.659 132.693 C 109.333 139.868 115.156 140.847 126.574 139.257 L 135.539 147.41 C 124.122 151.243 123.432 156.257 135.539 161.19 L 127.187 168.569 C 111.478 165.43 105.808 168.325 104.659 175.5 L 86.422 175.5 C 85.196 167.346 76.614 166.123 63.434 168.569 L 54.622 160.905 C 66.346 156.257 65.58 151.691 54.622 147.207 L 64.124 138.727 C 76.537 140.847 84.966 139.298 86.422 132.693 Z M 95.464 122.99 L 110.789 109.047 C 111.877 107.401 111.876 105.606 110.787 103.96 C 109.699 102.314 107.586 100.914 104.8 99.994 C 102.014 99.073 98.719 98.686 95.464 98.896 C 92.267 98.707 89.045 99.123 86.366 100.069 C 83.686 101.016 81.716 102.435 80.802 104.075 C 79.888 105.716 80.087 107.477 81.365 109.047 Z M 59.986 45 C 83.622 43.427 107.535 43.427 131.171 45 C 133.716 60.757 131.15 76.63 123.585 91.924 C 105.231 91.054 86.769 91.054 68.415 91.924 C 59.578 76.785 56.709 60.837 59.986 45.081 Z"
        fill="none"
        stroke="#000000"
        stroke-width="8"
        stroke-linecap="round"
        stroke-linejoin="round"/>
    <path
        id="path_2"
        d="M 131.171 45 C 124.652 35.314 114.57 26.416 101.517 18.826 C 95.693 15.932 94.851 15.524 89.334 18.826 C 76.294 26.392 66.305 35.3 59.986 45 M 123.585 91.924 C 131.068 92.581 138.409 93.633 145.5 95.064 C 145.04 89.438 142.588 82.833 128.106 80.713 M 63.128 80.713 C 48.646 82.711 46.96 89.356 46.5 94.982 C 53.597 93.579 60.938 92.555 68.415 91.924"
        fill="none"
        stroke="#000000"
        stroke-width="8"
        stroke-linecap="round"
        stroke-linejoin="round"/>
</svg>
